;FLAVOR:Marlin
;TIME:3869
;Filament used: 4.08364m
;Layer height: 0.2
;Generated with Cura_SteamEngine 3.5.0
M140 S60
M105
M190 S60
M104 S200
M105
M109 S200
M82 ;absolute extrusion mode
G21 ;metric values
G90 ;absolute positioning
M82 ;set extruder to absolute mode
M107 ;start with the fan off
G28 X0 Y0 ;move X/Y to min endstops
G28 Z0 ;move Z to min endstops
G1 Z15.0 F120 ;move the platform down 15mm
G92 E0 ;zero the extruded length
G1 F200 E3 ;extrude 3mm of feed stock
G92 E0 ;zero the extruded length again
G1 F120
M117 Printing...
G5
G92 E0
G1 F2400 E-6
;LAYER_COUNT:37
;LAYER:0
M106 S255
M204 S3000
M205 X10 Y10
G0 F2000 X64.635 Y96.426 Z0.3
M204 S1800
M205 X8 Y8
;TYPE:SKIRT
G1 F2400 E0
G1 F1200 X65.26 Y96.078 E0.04996
G1 X65.92 Y95.802 E0.09993
G1 X66.606 Y95.601 E0.14986
G1 X67.311 Y95.478 E0.19985
G1 X68.056 Y95.435 E0.25197
G1 X167.974 Y95.435 E7.23087
G1 X168.688 Y95.475 E7.28082
G1 X169.393 Y95.594 E7.33076
G1 X170.081 Y95.792 E7.38076
G1 X170.742 Y96.065 E7.43071
G1 X171.369 Y96.409 E7.48066
G1 X171.953 Y96.822 E7.53062
G1 X172.499 Y97.31 E7.58177
G1 X172.729 Y97.54 E7.60449
G1 X173.206 Y98.073 E7.65445
G1 X173.62 Y98.656 E7.70439
G1 X173.967 Y99.282 E7.75438
G1 X174.242 Y99.942 E7.80432
G1 X174.441 Y100.629 E7.85428
G1 X174.562 Y101.334 E7.90424
G1 X174.604 Y102.065 E7.95538
G1 X174.605 Y133.979 E10.18446
G1 X174.565 Y134.693 E10.23441
G1 X174.446 Y135.398 E10.28435
G1 X174.248 Y136.086 E10.33435
G1 X173.976 Y136.747 E10.38427
G1 X173.631 Y137.373 E10.4342
G1 X173.218 Y137.958 E10.48422
G1 X172.821 Y138.412 E10.52634
G1 X172.602 Y138.64 E10.54842
G1 X172.078 Y139.128 E10.59843
G1 X171.503 Y139.554 E10.64842
G1 X170.885 Y139.913 E10.69834
G1 X170.23 Y140.201 E10.74831
G1 X169.547 Y140.414 E10.79828
G1 X168.845 Y140.549 E10.84821
G1 X167.989 Y140.607 E10.90814
G1 X125.636 Y140.625 E13.86634
G1 X120.275 Y140.777 E14.24094
G1 X114.995 Y141.226 E14.61106
G1 X109.75 Y141.973 E14.9811
G1 X104.54 Y143.017 E15.35223
G1 X102.042 Y143.629 E15.53187
G1 X96.9 Y145.123 E15.90587
G1 X91.923 Y146.88 E16.27452
G1 X87.025 Y148.929 E16.64535
G1 X82.229 Y151.26 E17.01781
G1 X79.96 Y152.485 E17.19791
G1 X76.126 Y154.735 E17.50841
G1 X75.49 Y155.062 E17.55836
G1 X74.822 Y155.316 E17.60827
G1 X74.129 Y155.493 E17.65823
G1 X73.42 Y155.593 E17.70824
G1 X72.887 Y155.615 E17.7455
G1 X71.177 Y155.615 E17.86494
G1 X70.463 Y155.575 E17.91489
G1 X69.758 Y155.456 E17.96483
G1 X69.07 Y155.258 E18.01483
G1 X68.409 Y154.985 E18.06478
G1 X67.782 Y154.641 E18.11473
G1 X67.198 Y154.228 E18.16469
G1 X66.836 Y153.918 E18.19798
G1 X66.758 Y153.846 E18.2054
G1 X66.447 Y153.539 E18.23592
G1 X64.261 Y151.226 E18.45821
G1 X60.426 Y147.498 E18.83177
G1 X56.425 Y144.027 E19.20173
G1 X52.152 Y140.723 E19.579
G1 X50.003 Y139.132 E19.76576
G1 X49.453 Y138.675 E19.8157
G1 X48.957 Y138.159 E19.8657
G1 X48.522 Y137.592 E19.91561
G1 X48.153 Y136.979 E19.96558
G1 X47.855 Y136.329 E20.01553
G1 X47.631 Y135.65 E20.06547
G1 X47.484 Y134.95 E20.11543
G1 X47.411 Y133.989 E20.18274
G1 X47.409 Y124.063 E20.87604
G1 X47.449 Y123.349 E20.92599
G1 X47.568 Y122.644 E20.97592
G1 X47.765 Y121.956 E21.02591
G1 X48.038 Y121.295 E21.07586
G1 X48.383 Y120.668 E21.12585
G1 X48.781 Y120.102 E21.17417
G1 X52.503 Y115.376 E21.59435
G1 X55.527 Y111.03 E21.96415
G1 X58.288 Y106.536 E22.33255
G1 X60.831 Y101.821 E22.70672
G1 X62.066 Y99.275 E22.90436
G1 X62.414 Y98.65 E22.95433
G1 X62.829 Y98.067 E23.00431
G1 X63.29 Y97.551 E23.05264
G1 X63.521 Y97.319 E23.07551
G1 X64.053 Y96.841 E23.12546
G1 X64.635 Y96.426 E23.17539
M204 S3000
M205 X10 Y10
G0 F2000 X64.986 Y96.867
M204 S1800
M205 X8 Y8
G1 F1200 X65.588 Y96.542 E23.22317
G1 X66.223 Y96.29 E23.27089
G1 X66.883 Y96.114 E23.3186
G1 X67.559 Y96.016 E23.36631
G1 X68.056 Y95.995 E23.40105
G1 X167.974 Y95.995 E30.37995
G1 X168.656 Y96.035 E30.42767
G1 X169.329 Y96.154 E30.47541
G1 X169.983 Y96.351 E30.52311
G1 X170.61 Y96.624 E30.57088
G1 X171.2 Y96.967 E30.61855
G1 X171.747 Y97.377 E30.66629
G1 X172.104 Y97.705 E30.70015
G1 X172.334 Y97.935 E30.72287
G1 X172.788 Y98.446 E30.77062
G1 X173.179 Y99.006 E30.81832
G1 X173.502 Y99.608 E30.86604
G1 X173.753 Y100.244 E30.9138
G1 X173.927 Y100.904 E30.96147
G1 X174.024 Y101.581 E31.00924
G1 X174.044 Y102.065 E31.04307
G1 X174.045 Y133.979 E33.27215
G1 X174.005 Y134.661 E33.31986
G1 X173.886 Y135.334 E33.3676
G1 X173.689 Y135.988 E33.41531
G1 X173.417 Y136.614 E33.46298
G1 X173.073 Y137.205 E33.51074
G1 X172.663 Y137.752 E33.55849
G1 X172.417 Y138.025 E33.58416
G1 X172.198 Y138.253 E33.60624
G1 X171.696 Y138.717 E33.65398
G1 X171.144 Y139.119 E33.70168
G1 X170.549 Y139.454 E33.74937
G1 X169.919 Y139.718 E33.79708
G1 X169.262 Y139.906 E33.84481
G1 X168.588 Y140.016 E33.89251
G1 X167.988 Y140.047 E33.93448
G1 X125.656 Y140.065 E36.89121
G1 X120.231 Y140.218 E37.27028
G1 X114.938 Y140.668 E37.64131
G1 X109.65 Y141.422 E38.01439
G1 X104.416 Y142.471 E38.38724
G1 X101.888 Y143.091 E38.56904
G1 X96.739 Y144.587 E38.94355
G1 X91.714 Y146.361 E39.31576
G1 X86.793 Y148.418 E39.68829
G1 X81.978 Y150.759 E40.06224
G1 X79.694 Y151.992 E40.24353
G1 X75.843 Y154.252 E40.55541
G1 X75.234 Y154.562 E40.60314
G1 X74.594 Y154.8 E40.65083
G1 X73.93 Y154.961 E40.69855
G1 X73.252 Y155.044 E40.74626
G1 X72.887 Y155.055 E40.77177
G1 X71.177 Y155.055 E40.8912
G1 X70.495 Y155.015 E40.93892
G1 X69.822 Y154.896 E40.98666
G1 X69.168 Y154.699 E41.03436
G1 X68.541 Y154.426 E41.08213
G1 X67.951 Y154.083 E41.1298
G1 X67.216 Y153.506 E41.19506
G1 X67.138 Y153.434 E41.20248
G1 X66.854 Y153.154 E41.23033
G1 X64.651 Y150.823 E41.45435
G1 X60.815 Y147.094 E41.82801
G1 X56.777 Y143.591 E42.20139
G1 X52.508 Y140.29 E42.57831
G1 X50.336 Y138.682 E42.76706
G1 X49.812 Y138.244 E42.81477
G1 X49.342 Y137.748 E42.86249
G1 X48.934 Y137.2 E42.91021
G1 X48.592 Y136.609 E42.9579
G1 X48.322 Y135.981 E43.00565
G1 X48.126 Y135.326 E43.0534
G1 X48.009 Y134.653 E43.10112
G1 X47.971 Y133.989 E43.14757
G1 X47.969 Y124.063 E43.84086
G1 X48.009 Y123.381 E43.88858
G1 X48.128 Y122.708 E43.93632
G1 X48.325 Y122.054 E43.98402
G1 X48.597 Y121.427 E44.03176
G1 X48.94 Y120.837 E44.07943
G1 X49.221 Y120.449 E44.11289
G1 X52.953 Y115.71 E44.53421
G1 X55.99 Y111.345 E44.90562
G1 X58.777 Y106.81 E45.27741
G1 X61.328 Y102.081 E45.6527
G1 X62.57 Y99.519 E45.85157
G1 X62.904 Y98.923 E45.89929
G1 X63.305 Y98.369 E45.94705
G1 X63.687 Y97.946 E45.98686
G1 X63.918 Y97.714 E46.00973
G1 X64.427 Y97.259 E46.05742
G1 X64.986 Y96.867 E46.1051
M204 S3000
M205 X10 Y10
G0 F2000 X65.335 Y97.31
M204 S1800
M205 X8 Y8
G1 F1200 X65.912 Y97.01 E46.15053
G1 X66.52 Y96.783 E46.19586
G1 X67.152 Y96.633 E46.24123
G1 X68.056 Y96.555 E46.3046
G1 X167.974 Y96.555 E53.2835
G1 X168.622 Y96.595 E53.32885
G1 X169.261 Y96.714 E53.37425
G1 X169.88 Y96.911 E53.41962
G1 X170.47 Y97.182 E53.46497
G1 X171.023 Y97.524 E53.51038
G1 X171.708 Y98.101 E53.57294
G1 X171.938 Y98.331 E53.59566
G1 X172.368 Y98.818 E53.64104
G1 X172.735 Y99.354 E53.68641
G1 X173.034 Y99.931 E53.7318
G1 X173.259 Y100.54 E53.77715
G1 X173.408 Y101.173 E53.82257
G1 X173.484 Y102.065 E53.8851
G1 X173.485 Y133.979 E56.11417
G1 X173.445 Y134.627 E56.15952
G1 X173.326 Y135.266 E56.20492
G1 X173.129 Y135.885 E56.25029
G1 X172.858 Y136.475 E56.29564
G1 X172.516 Y137.028 E56.34105
G1 X172.013 Y137.637 E56.39622
G1 X171.794 Y137.865 E56.4183
G1 X171.316 Y138.305 E56.46368
G1 X170.788 Y138.682 E56.50899
G1 X170.217 Y138.993 E56.55441
G1 X169.612 Y139.23 E56.59979
G1 X168.983 Y139.392 E56.64516
G1 X168.339 Y139.475 E56.69051
G1 X167.988 Y139.487 E56.71504
G1 X125.639 Y139.505 E59.67296
G1 X120.202 Y139.659 E60.05287
G1 X114.865 Y140.112 E60.42698
G1 X109.568 Y140.868 E60.8007
G1 X104.292 Y141.925 E61.17653
G1 X101.74 Y142.55 E61.36005
G1 X96.574 Y144.051 E61.7358
G1 X91.504 Y145.841 E62.11134
G1 X86.575 Y147.902 E62.4845
G1 X81.708 Y150.268 E62.86248
G1 X79.416 Y151.505 E63.04439
G1 X75.559 Y153.769 E63.35677
G1 X74.98 Y154.062 E63.4021
G1 X74.369 Y154.283 E63.44748
G1 X73.735 Y154.426 E63.49287
G1 X72.887 Y154.495 E63.5523
G1 X71.177 Y154.495 E63.67174
G1 X70.529 Y154.455 E63.71708
G1 X69.89 Y154.336 E63.76248
G1 X69.271 Y154.139 E63.80785
G1 X68.681 Y153.868 E63.8532
G1 X68.128 Y153.526 E63.89862
G1 X67.596 Y153.095 E63.94644
G1 X67.518 Y153.023 E63.95385
G1 X67.261 Y152.769 E63.97909
G1 X65.053 Y150.432 E64.20365
G1 X61.187 Y146.675 E64.58018
G1 X57.146 Y143.168 E64.9539
G1 X52.817 Y139.821 E65.3361
G1 X50.67 Y138.232 E65.52266
G1 X50.172 Y137.814 E65.56808
G1 X49.73 Y137.338 E65.61345
G1 X49.349 Y136.812 E65.65881
G1 X49.036 Y136.242 E65.70423
G1 X48.796 Y135.639 E65.74956
G1 X48.631 Y135.011 E65.79491
G1 X48.545 Y134.367 E65.84029
G1 X48.531 Y133.989 E65.86671
G1 X48.529 Y124.063 E66.56001
G1 X48.569 Y123.415 E66.60535
G1 X48.688 Y122.776 E66.65075
G1 X48.885 Y122.157 E66.69612
G1 X49.156 Y121.567 E66.74147
G1 X49.661 Y120.795 E66.80591
G1 X53.409 Y116.035 E67.22907
G1 X56.454 Y111.66 E67.60137
G1 X59.265 Y107.084 E67.97648
G1 X61.824 Y102.341 E68.3529
G1 X63.074 Y99.763 E68.55301
G1 X63.393 Y99.197 E68.59839
G1 X63.779 Y98.675 E68.64374
G1 X64.083 Y98.342 E68.67523
G1 X64.314 Y98.11 E68.6981
G1 X64.8 Y97.678 E68.74352
G1 X65.335 Y97.31 E68.78887
M204 S3000
M205 X10 Y10
G0 F2000 X68.168 Y102.105
M204 S1800
M205 X8 Y8
;TYPE:SUPPORT
G1 F1200 X167.864 Y102.105 E75.75227
G1 X167.934 Y102.175 E75.75918
G1 X167.935 Y133.875 E77.97331
G1 X167.865 Y133.945 E77.98022
G1 X73.292 Y133.945 E84.5858
G1 X72.846 Y134.391 E84.62985
G1 X72.846 Y148.875 E85.6415
G1 X72.776 Y148.945 E85.64842
G1 X71.287 Y148.945 E85.75242
G1 X71.217 Y148.875 E85.75933
G1 X71.216 Y134.391 E86.77099
G1 X70.77 Y133.945 E86.81504
G1 X58.062 Y133.945 E87.70265
G1 X58.061 Y131.855 E87.84863
G1 X67.649 Y131.855 E88.51831
G1 X68.095 Y131.409 E88.56237
G1 X68.1 Y126.641 E88.8954
G1 X67.654 Y126.195 E88.93945
G1 X58.062 Y126.195 E89.60942
G1 X58.061 Y124.105 E89.75539
G1 X67.651 Y124.105 E90.42522
G1 X68.097 Y123.659 E90.46928
G1 X68.098 Y102.175 E91.96985
G1 X68.168 Y102.105 E91.97677
M204 S3000
M205 X10 Y10
G0 F2000 X154.66 Y120.67
M204 S1800
M205 X8 Y8
G1 F1200 X81.372 Y120.67 E97.09566
G1 X81.373 Y115.38 E97.46515
G1 X154.659 Y115.38 E102.5839
G1 X154.66 Y120.67 E102.95339
M204 S3000
M205 X10 Y10
G0 F2000 X157.327 Y123.337
M204 S1800
M205 X8 Y8
G1 F1200 X78.711 Y123.337 E108.44443
G1 X78.712 Y122.25 E108.52035
G1 X78.705 Y122.243 E108.52104
G1 X78.706 Y112.713 E109.18667
G1 X157.326 Y112.713 E114.67799
G1 X157.327 Y123.337 E115.42004
M204 S3000
M205 X10 Y10
G0 F2000 X159.994 Y126.004
M204 S1800
M205 X8 Y8
G1 F1200 X76.042 Y126.004 E121.28377
G1 X76.044 Y123.354 E121.46886
G1 X76.038 Y123.348 E121.46946
G1 X76.039 Y110.046 E122.39855
G1 X159.993 Y110.046 E128.26243
G1 X159.994 Y126.004 E129.37703
M204 S3000
M205 X10 Y10
G0 F2000 X162.661 Y128.671
M204 S1800
M205 X8 Y8
G1 F1200 X73.372 Y128.671 E135.61354
G1 X73.376 Y124.458 E135.9078
G1 X73.371 Y124.453 E135.9083
G1 X73.372 Y107.379 E137.10085
G1 X162.66 Y107.379 E143.33729
G1 X162.661 Y128.671 E144.82445
M204 S3000
M205 X10 Y10
G0 F2000 X165.328 Y131.338
M204 S1800
M205 X8 Y8
G1 F1200 X72.212 Y131.338 E151.32826
G1 X72.031 Y131.519 E151.34614
G1 X71.85 Y131.338 E151.36402
G1 X70.702 Y131.338 E151.4442
G1 X70.708 Y125.562 E151.84763
G1 X70.295 Y125.149 E151.88843
G1 X70.704 Y124.739 E151.92888
G1 X70.705 Y104.712 E153.32769
G1 X165.327 Y104.712 E159.93668
G1 X165.328 Y131.338 E161.79641
M204 S3000
M205 X10 Y10
G1 F2400 E155.79641
G0 F2000 X57.746 Y125.42
G0 X56.228 Y125.421
G0 X56.172 Y125.365
G0 X56.242 Y125.435
M204 S1800
M205 X8 Y8
;TYPE:WALL-INNER
G1 F2400 E161.79641
G1 F1200 X55.854 Y125.435 E161.82351
G1 X55.853 Y124.865 E161.86332
G1 X56.241 Y124.865 E161.89042
G1 X56.242 Y125.435 E161.91803
M204 S3000
M205 X10 Y10
G0 F2000 X56.802 Y125.715
M204 S1800
M205 X8 Y8
;TYPE:WALL-OUTER
G1 F1200 X56.802 Y125.995 E161.93759
G1 X56.522 Y125.995 E161.95025
G1 X55.294 Y125.995 E162.03602
G1 X55.293 Y124.585 E162.1345
G1 X55.293 Y124.305 E162.15406
G1 X55.573 Y124.305 E162.16672
G1 X56.801 Y124.305 E162.25249
G1 X56.802 Y125.715 E162.35097
M204 S3000
M205 X10 Y10
G0 F2000 X56.802 Y125.915
G1 F2400 E156.35097
G0 F2000 X56.172 Y125.365
G0 X56.172 Y125.415
G0 X56.172 Y126.94
G0 X56.172 Y131.11
G0 X56.172 Y132.635
G0 X56.172 Y133.115
G0 X56.242 Y133.185
M204 S1800
M205 X8 Y8
;TYPE:WALL-INNER
G1 F2400 E162.35097
G1 F1200 X55.854 Y133.185 E162.37807
G1 X55.853 Y132.615 E162.41789
G1 X56.241 Y132.615 E162.44499
G1 X56.242 Y133.185 E162.47259
M204 S3000
M205 X10 Y10
G0 F2000 X56.802 Y133.465
M204 S1800
M205 X8 Y8
;TYPE:WALL-OUTER
G1 F1200 X56.802 Y133.745 E162.49215
G1 X56.522 Y133.745 E162.50481
G1 X55.294 Y133.745 E162.59058
G1 X55.293 Y132.335 E162.68906
G1 X55.293 Y132.055 E162.70862
G1 X55.573 Y132.055 E162.72128
G1 X56.801 Y132.055 E162.80705
G1 X56.802 Y133.465 E162.90553
M204 S3000
M205 X10 Y10
G0 F2000 X56.802 Y133.665
G1 F2400 E156.90553
G0 F2000 X56.172 Y133.115
G0 X56.227 Y132.629
G0 X56.227 Y131.11
G0 X68.134 Y102.025
;TIME_ELAPSED:134.043207
;LAYER:1
M140 S60
G0 F4000 X68.134 Y102.025 Z0.5
M204 S1800
M205 X8 Y8
;TYPE:SUPPORT
G1 F2400 E162.90553
G1 X167.898 Y102.025 E166.2237
G1 X168.014 Y102.141 E166.22915
G1 X168.015 Y133.909 E167.28576
G1 X167.899 Y134.025 E167.29122
G1 X73.325 Y134.025 E170.43676
G1 X72.926 Y134.424 E170.45553
G1 X72.926 Y148.909 E170.9373
G1 X72.81 Y149.025 E170.94276
G1 X71.253 Y149.025 E170.99455
G1 X71.137 Y148.909 E171
G1 X71.136 Y134.424 E171.48177
G1 X70.737 Y134.025 E171.50054
G1 X58.214 Y134.025 E171.91706
G1 X58.248 Y133.991 E171.91866
G1 X58.247 Y131.809 E171.99123
G1 X58.213 Y131.775 E171.99283
G1 X67.616 Y131.775 E172.30558
G1 X68.015 Y131.376 E172.32434
G1 X68.02 Y126.674 E172.48073
G1 X67.621 Y126.275 E172.4995
G1 X58.214 Y126.275 E172.81238
G1 X58.248 Y126.241 E172.81398
G1 X58.247 Y124.059 E172.88655
G1 X58.213 Y124.025 E172.88815
G1 X67.618 Y124.025 E173.20096
G1 X68.017 Y123.626 E173.21973
G1 X68.018 Y102.141 E173.93432
G1 X68.134 Y102.025 E173.93978
M204 S3000
M205 X10 Y10
G0 F4000 X152.073 Y118.083
M204 S1800
M205 X8 Y8
G1 F2400 X83.959 Y118.083 E176.20526
G1 X83.96 Y117.967 E176.20912
G1 X152.072 Y117.967 E178.47453
G1 X152.073 Y118.083 E178.47839
M204 S3000
M205 X10 Y10
G0 F4000 X154.74 Y120.75
M204 S1800
M205 X8 Y8
G1 F2400 X81.292 Y120.75 E180.92128
G1 X81.293 Y115.3 E181.10255
G1 X154.739 Y115.3 E183.54537
G1 X154.74 Y120.75 E183.72664
M204 S3000
M205 X10 Y10
G0 F4000 X157.407 Y123.417
M204 S1800
M205 X8 Y8
G1 F2400 X78.631 Y123.417 E186.34674
G1 X78.632 Y122.284 E186.38443
G1 X78.625 Y122.277 E186.38476
G1 X78.626 Y112.633 E186.70552
G1 X157.406 Y112.633 E189.32575
G1 X157.407 Y123.417 E189.68443
M204 S3000
M205 X10 Y10
G0 F4000 X160.074 Y126.084
M204 S1800
M205 X8 Y8
G1 F2400 X75.961 Y126.084 E192.48204
G1 X75.964 Y123.387 E192.57174
G1 X75.958 Y123.381 E192.57202
G1 X75.959 Y109.966 E193.01821
G1 X160.073 Y109.966 E195.81585
G1 X160.074 Y126.084 E196.35194
M204 S3000
M205 X10 Y10
G0 F4000 X162.741 Y128.751
M204 S1800
M205 X8 Y8
G1 F2400 X73.292 Y128.751 E199.32702
G1 X73.296 Y124.491 E199.46871
G1 X73.291 Y124.486 E199.46895
G1 X73.292 Y107.299 E200.04059
G1 X162.74 Y107.299 E203.01564
G1 X162.741 Y128.751 E203.72914
M204 S3000
M205 X10 Y10
G0 F4000 X165.408 Y131.418
M204 S1800
M205 X8 Y8
G1 F2400 X72.245 Y131.418 E206.82775
G1 X72.031 Y131.632 E206.83782
G1 X71.817 Y131.418 E206.84788
G1 X70.622 Y131.418 E206.88763
G1 X70.628 Y125.595 E207.0813
G1 X70.182 Y125.149 E207.10228
G1 X70.624 Y124.706 E207.12309
G1 X70.625 Y104.632 E207.79076
G1 X165.407 Y104.632 E210.94322
G1 X165.408 Y131.418 E211.83413
M204 S3000
M205 X10 Y10
G1 F2400 E205.83413
G0 F4000 X58.386 Y125.661
G0 X57.107 Y125.661
G0 X56.721 Y125.275
M204 S1800
M205 X8 Y8
;TYPE:WALL-INNER
G1 F2400 E211.83413
G1 X55.369 Y125.275 E211.87909
G1 X55.368 Y125.025 E211.88741
G1 X56.721 Y125.025 E211.91554
G1 X56.721 Y125.275 E211.92386
M204 S3000
M205 X10 Y10
G0 F4000 X57.121 Y125.675
M204 S1800
M205 X8 Y8
G1 F2400 X54.969 Y125.675 E211.99543
G1 X54.968 Y124.825 E212.0237
G1 X54.968 Y124.625 E212.03036
G1 X55.168 Y124.625 E212.03466
G1 X57.121 Y124.625 E212.09962
G1 X57.121 Y125.675 E212.13454
M204 S3000
